packages/swarm-icons/src/icons/line/Duplicate Add.svg

<svg xmlns="http://www.w3.org/2000/svg" width="24" height="24" viewBox="0 0 24 24">
  <path fill="#757575" d="M14,10 L14,7 C14,6.72385763 14.2238576,6.5 14.5,6.5 C14.7761424,6.5 15,6.72385763 15,7 L15,10 L18,10 C18.2761424,10 18.5,10.2238576 18.5,10.5 C18.5,10.7761424 18.2761424,11 18,11 L15,11 L15,14 C15,14.2761424 14.7761424,14.5 14.5,14.5 C14.2238576,14.5 14,14.2761424 14,14 L14,11 L11,11 C10.7238576,11 10.5,10.7761424 10.5,10.5 C10.5,10.2238576 10.7238576,10 11,10 L14,10 Z M18,18.5 C18,20.4329966 16.4329966,22 14.5,22 L5.5,22 C3.56700338,22 2,20.4329966 2,18.5 L2,9.5 C2,7.56700338 3.56700338,6 5.5,6 L6.5,6 C6.5,4.06700338 8.06700338,2.5 10,2.5 L19,2.5 C20.9329966,2.5 22.5,4.06700338 22.5,6 L22.5,15 C22.5,16.9329966 20.9329966,18.5 19,18.5 L18,18.5 Z M17,18.5 L10,18.5 C8.06700338,18.5 6.5,16.9329966 6.5,15 L6.5,7 L5.5,7 C4.11928813,7 3,8.11928813 3,9.5 L3,18.5 C3,19.8807119 4.11928813,21 5.5,21 L14.5,21 C15.8807119,21 17,19.8807119 17,18.5 Z M10,3.5 C8.61928813,3.5 7.5,4.61928813 7.5,6 L7.5,15 C7.5,16.3807119 8.61928813,17.5 10,17.5 L19,17.5 C20.3807119,17.5 21.5,16.3807119 21.5,15 L21.5,6 C21.5,4.61928813 20.3807119,3.5 19,3.5 L10,3.5 Z"/>
</svg>

<svg xmlns="http://www.w3.org/2000/svg" width="24" height="24"><path fill="#757575" d="M14 10V7a.5.5 0 111 0v3h3a.5.5 0 110 1h-3v3a.5.5 0 11-1 0v-3h-3a.5.5 0 110-1h3zm4 8.5a3.5 3.5 0 01-3.5 3.5h-9A3.5 3.5 0 012 18.5v-9A3.5 3.5 0 015.5 6h1A3.5 3.5 0 0110 2.5h9A3.5 3.5 0 0122.5 6v9a3.5 3.5 0 01-3.5 3.5h-1zm-1 0h-7A3.5 3.5 0 016.5 15V7h-1A2.5 2.5 0 003 9.5v9A2.5 2.5 0 005.5 21h9a2.5 2.5 0 002.5-2.5zm-7-15A2.5 2.5 0 007.5 6v9a2.5 2.5 0 002.5 2.5h9a2.5 2.5 0 002.5-2.5V6A2.5 2.5 0 0019 3.5h-9z"/></svg>
